icon/mi/residential-community.svg

<?xml version="1.0" encoding="UTF-8"?>
<svg viewBox="0 0 15 15" xmlns="http://www.w3.org/2000/svg" id="residential-community" height="1em" width="1em">
  <path d="m11.8 12.5v-2.5c.7-.1 1.2-.7 1.2-1.5s-.7-1.5-1.5-1.5-1.5.7-1.5 1.5c0 .7.5 1.4 1.2 1.5v2.5h-4.2v-11.5h-5v11.5h-1v.5h13v-.5zm-5.8-2.5h-3v-1h3zm0-2h-3v-1h3zm0-2h-3v-1h3zm0-2h-3v-1h3z"/>
</svg>

<svg height="15" width="15" xmlns="http://www.w3.org/2000/svg"><path d="M11.8 12.5V10c.7-.1 1.2-.7 1.2-1.5S12.3 7 11.5 7 10 7.7 10 8.5c0 .7.5 1.4 1.2 1.5v2.5H7V1H2v11.5H1v.5h13v-.5zM6 10H3V9h3zm0-2H3V7h3zm0-2H3V5h3zm0-2H3V3h3z"/></svg>
